shared/images/iconfont/kb-iconfont-folder-dropdown-16.svg

<?xml version="1.0" encoding="UTF-8"?>
<svg width="16px" height="16px" viewBox="0 0 16 16" version="1.1" xmlns="http://www.w3.org/2000/svg" xmlns:xlink="http://www.w3.org/1999/xlink">
    <!-- Generator: sketchtool 49.2 (51160) - http://www.bohemiancoding.com/sketch -->
    <title>242D3850-E7A6-4210-AA1E-930AC911B4BB</title>
    <desc>Created with sketchtool.</desc>
    <defs></defs>
    <g id="Colors,-icons" stroke="none" stroke-width="1" fill="none" fill-rule="evenodd">
        <g id="Icons-2" transform="translate(-338.000000, -308.000000)">
            <g id="kb-iconfont-folder-dropdown-16" transform="translate(338.000000, 308.000000)">
                <g id="kb-iconfont-folder-public">
                    <rect id="icon-area" fill="#FFFFFF" opacity="0" x="0" y="0" width="16" height="16"></rect>
                    <path d="M7.33324667,3 L14.6666533,3 C15.4030251,3.00003682 15.9999632,3.76362822 16,4.5 L16,13.5 C15.9999632,14.2363718 15.4030251,14.9999632 14.6666533,15 L1.33334667,15 C0.596974887,14.9999632 3.68158279e-05,14.2363718 0,13.5 L0,2.33334667 C3.68158279e-05,1.59697489 0.596974887,1.00003682 1.33334667,1 L5.9999,1 L7.33324667,3 Z M6.07882144,8 C5.9890584,8 5.90242961,8.03053304 5.83542715,8.08578635 C5.68464592,8.21012748 5.67138491,8.4239907 5.80580787,8.56346323 L7.72698829,10.5568125 C7.73628746,10.566461 7.74617677,10.5756086 7.75660758,10.5842103 C7.90738881,10.7085514 8.13859248,10.696285 8.27301543,10.5568125 L10.1941959,8.56346323 C10.2539292,8.50148601 10.2869379,8.42135444 10.2869379,8.3383237 C10.2869379,8.15147268 10.1231836,8 9.92118229,8 L6.07882144,8 Z" id="folder" fill="#000000" fill-rule="nonzero"></path>
                </g>
            </g>
        </g>
    </g>
</svg>

<svg xmlns="http://www.w3.org/2000/svg" width="16" height="16" viewBox="0 0 16 16">
    <path fill="#000" fill-rule="nonzero" d="M7.333 3h7.334C15.403 3 16 3.764 16 4.5v9c0 .736-.597 1.5-1.333 1.5H1.333C.597 15 0 14.236 0 13.5V2.333C0 1.597.597 1 1.333 1H6l1.333 2zM6.08 8c-.09 0-.177.03-.244.086a.32.32 0 0 0-.03.477l1.922 1.994.03.027c.15.125.382.112.516-.027l1.921-1.994a.324.324 0 0 0 .093-.225c0-.187-.164-.338-.366-.338H6.08z"/>
</svg>
